brandFactory_export/1.Light/Balon_Deporte_1Light.svg

<?xml version="1.0" encoding="UTF-8"?>
<svg width="24px" height="24px" viewBox="0 0 24 24" version="1.1" xmlns="http://www.w3.org/2000/svg" xmlns:xlink="http://www.w3.org/1999/xlink">
    <title>1.Light/Balon_Deporte_1Light</title>
    <g id="Symbols" stroke="none" stroke-width="1" fill="none" fill-rule="evenodd">
        <g id="1.Light/Balon_Deporte_1Light" fill="#5CB615" fill-rule="nonzero">
            <path d="M18.7327731,20.1277311 C17.3546218,18.1680672 16.497479,15.2840336 16.410084,12.2420168 L22.6319328,12.2420168 C22.5042017,15.3042017 21.0890756,18.1714286 18.7327731,20.1277311 Z M12.302521,22.6285714 L12.302521,12.2453782 L15.4218487,12.2453782 C15.5092437,15.492437 16.4369748,18.594958 17.9529412,20.7193277 C16.2890756,21.8756303 14.3294118,22.5378151 12.302521,22.6285714 L12.302521,22.6285714 Z M12.302521,0.994957983 C14.3394958,1.08235294 16.2285714,1.74117647 17.8151261,2.80672269 C16.3495798,4.99159664 15.492437,8.02352941 15.4252101,11.2605042 L12.302521,11.2605042 L12.302521,0.994957983 Z M22.6285714,11.2605042 L16.410084,11.2605042 C16.4773109,8.23865546 17.2773109,5.41512605 18.605042,3.39495798 C21.005042,5.32436975 22.4672269,8.18487395 22.6285714,11.2605042 Z M11.3210084,11.2605042 L8.13109244,11.2605042 C8.07394958,8.04369748 7.22689076,5.01176471 5.76806723,2.82352941 C7.37142857,1.7512605 9.27058824,1.08235294 11.3210084,0.994957983 L11.3210084,11.2605042 Z M11.3210084,22.6285714 C9.20336134,22.5310924 7.25714286,21.8319328 5.62016807,20.6890756 C7.10588235,18.5613445 8.02352941,15.4722689 8.12773109,12.2420168 L11.3176471,12.2420168 L11.3176471,22.6285714 L11.3210084,22.6285714 Z M0.991596639,12.2453782 L7.14285714,12.2453782 C7.04537815,15.2571429 6.19831933,18.1310924 4.84033613,20.0907563 C2.51428571,18.1310924 1.11596639,15.2840336 0.991596639,12.2453782 L0.991596639,12.2453782 Z M4.97142857,3.42521008 C6.3092437,5.45210084 7.08907563,8.25882353 7.14621849,11.2605042 L0.994957983,11.2605042 C1.15966387,8.10084034 2.6789916,5.30420168 4.97142857,3.42521008 Z M11.8117647,0 C5.29411765,0 0,5.29411765 0,11.8117647 C0,18.3260504 5.29411765,23.6235294 11.8117647,23.6235294 C18.3294118,23.6235294 23.6235294,18.3260504 23.6235294,11.8117647 C23.6235294,5.29411765 18.3294118,0 11.8117647,0 Z" id="Balon_Deporte_1Light"></path>
        </g>
    </g>
</svg>

<svg width="24" height="24" viewBox="0 0 24 24" xmlns="http://www.w3.org/2000/svg"><path d="M18.733 20.128c-1.378-1.96-2.236-4.844-2.323-7.886h6.222a10.835 10.835 0 01-3.9 7.886zm-6.43 2.5V12.246h3.119c.087 3.247 1.015 6.35 2.53 8.474a10.745 10.745 0 01-5.65 1.91zm0-21.633c2.036.087 3.926.746 5.512 1.812-1.465 2.185-2.323 5.217-2.39 8.454h-3.122V.995zm10.326 10.266H16.41c.067-3.022.867-5.846 2.195-7.866 2.4 1.93 3.862 4.79 4.024 7.866zm-11.308 0h-3.19c-.057-3.217-.904-6.25-2.363-8.437A10.795 10.795 0 0111.321.995v10.266zm0 11.368a10.774 10.774 0 01-5.7-1.94c1.485-2.128 2.403-5.217 2.507-8.447h3.19v10.387h.003zM.991 12.245h6.152c-.098 3.012-.945 5.886-2.303 7.846a10.841 10.841 0 01-3.848-7.846zm3.98-8.82C6.31 5.452 7.09 8.26 7.146 11.261H.995a10.852 10.852 0 013.976-7.836zM11.811 0C5.295 0 0 5.294 0 11.812c0 6.514 5.294 11.812 11.812 11.812 6.517 0 11.812-5.298 11.812-11.812C23.624 5.294 18.329 0 11.812 0z" fill="#5CB615" fill-rule="nonzero"/></svg>
